X: 19
T: Vostre regart
N: Derived from Tin3010-Vostre_regart.krn
C: Johannes Tinctoris
%%abc-version 2.0
%%abcx-abcm2ps-target-version 5.9.1 (29 Sep 2008)
%%abc-creator hum2abc beta
%%abcx-conversion-date 2019/02/17 07:34:56
%%abc-edited-by Jesse Rodin
%%abc-edited-by Chris Gage 01-29-2015
%%abcx-initial-encoding-date 2015/03/07/
%%humdrum-veritas 3466090148
%%humdrum-veritas-data 253581295
%%linebreak <none>
%%barnumbers 0
L: 1/4
M: 2/1
Q: 1/2=120
V: 1 clef=treble
V: 2 clef=treble-8
V: 3 clef=bass
K: F
[V:1] G8 | 
[V:2] z8 | 
[V:3] G,8- | 
[V:1] D4D4 | 
[V:2] z8 | 
[V:3] G,8 | 
[V:1] E4D4- | 
[V:2] G8 | 
[V:3] C,4G,,4 | 
[V:1] D2E2F4 | 
[V:2] D4D4 | 
[V:3] B,,6D,2 | 
[V:1] G4A4- | 
[V:2] E4D4 | 
[V:3] C,4F,4- | 
[V:1] A2=B2c2d2 | 
[V:2] F8 | 
[V:3] F,2G,2A,4 | 
[V:1] =B4A4- | 
[V:2] G4A4 | 
[V:3] D4C4 | 
[V:1] A2G2G4- | 
[V:2] F4B4 | 
[V:3] A,2C2G,4 | 
[V:1] G4^F4 | 
[V:2] A8 | 
[V:3] D,8 | 
[V:1] G8 | 
[V:2] G8- | 
[V:3] _E,4C,4- | 
[V:1] z4G4 | 
[V:2] G8 | 
[V:3] C,2B,,2G,,4- | 
[V:1] B4B4 | 
[V:2] z4G4 | 
[V:3] G,,8 | 
[V:1] A6GF | 
[V:2] F6ED | 
[V:3] D,8 | 
[V:1] G4A4 | 
[V:2] E4F4 | 
[V:3] C,4A,,4 | 
[V:1] D4d4- | 
[V:2] G6F2 | 
[V:3] G,,6A,,2 | 
[V:1] d2c2B2A2 | 
[V:2] D8 | 
[V:3] B,,2C,2D,4- | 
[V:1] A4B4- | 
[V:2] d8- | 
[V:3] D,4G,4- | 
[V:1] B2A2A4- | 
[V:2] d4c4 | 
[V:3] G,2D,2F,4 | 
[V:1] A4G4 | 
[V:2] B8 | 
[V:3] G,8 | 
[V:1] A8- | 
[V:2] A8- | 
[V:3] D,8 | 
[V:1] A8 | 
[V:2] A8 | 
[V:3] z4F,4 | 
[V:1] z8 | 
[V:2] B4c4 | 
[V:3] G,4E,4 | 
[V:1] F4G4 | 
[V:2] d4G4 | 
[V:3] D,4E,4 | 
[V:1] E4D4- | 
[V:2] z4F4 | 
[V:3] C,4B,,4 | 
[V:1] D2G4E2 | 
[V:2] G4E4 | 
[V:3] G,,4G,4 | 
[V:1] F4G4 | 
[V:2] D4E4 | 
[V:3] A,4G,4 | 
[V:1] A6=B2 | 
[V:2] F6G2 | 
[V:3] D,4F,4- | 
[V:1] c6=B2 | 
[V:2] A2=B2c4- | 
[V:3] F,2E,2C,2D,2 | 
[V:1] G2A2G4- | 
[V:2] c4=B4 | 
[V:3] E,2F,2G,4 | 
[V:1] G2^FGF2E2 | 
[V:2] A8 | 
[V:3] D,8 | 
[V:1] G8 | 
[V:2] G8- | 
[V:3] G,,8- | 
[V:1] z4D4 | 
[V:2] G8 | 
[V:3] G,,8 | 
[V:1] E4F4 | 
[V:2] z4D4 | 
[V:3] C,4B,,4 | 
[V:1] G4A4 | 
[V:2] E4F4 | 
[V:3] z4D,4 | 
[V:1] G4c4 | 
[V:2] G4A4 | 
[V:3] E,4F,4 | 
[V:1] =B2d2c2A2 | 
[V:2] G4c4 | 
[V:3] G,4A,4 | 
[V:1] =B2G2A2GF | 
[V:2] d2=B2c4- | 
[V:3] G,4F,4 | 
[V:1] E4D2G2- | 
[V:2] c2A2=B4 | 
[V:3] z4G,4 | 
[V:1] G2F2D2CD | 
[V:2] G2A2F4 | 
[V:3] E,2D,6 | 
[V:1] E4D4- | 
[V:2] G4F4 | 
[V:3] C,4D,4 | 
[V:1] D4^C4 | 
[V:2] E8 | 
[V:3] A,,8 | 
[V:1] D8- | 
[V:2] D8 | 
[V:3] A,8 | 
[V:1] D8 | 
[V:2] G4=B4- | 
[V:3] z4G,4 | 
[V:1] z8 | 
[V:2] B2c2A4 | 
[V:3] E,4F,4 | 
[V:1] G4E4 | 
[V:2] =B4c4 | 
[V:3] G,4C,4 | 
[V:1] F4G4- | 
[V:2] A4G4 | 
[V:3] D,4G,,4- | 
[V:1] G4A4 | 
[V:2] E4F4 | 
[V:3] G,,2C,2A,,4 | 
[V:1] =B2d4B2 | 
[V:2] G8 | 
[V:3] G,,4G,4 | 
[V:1] c4A4- | 
[V:2] A6=B2 | 
[V:3] F,6G,2 | 
[V:1] A2G2F2E2 | 
[V:2] c4d4 | 
[V:3] A,4D,4 | 
[V:1] D4E2F2- | 
[V:2] =B4A4- | 
[V:3] G,4z2D,2- | 
[V:1] F2G2A2GA | 
[V:2] A2B2c4 | 
[V:3] D,2B,,2A,,4 | 
[V:1] B4G4- | 
[V:2] d4B4 | 
[V:3] G,,4G,,4 | 
[V:1] G2^FEF4 | 
[V:2] A8 | 
[V:3] D,8 | 
[V:1] G8 |]  
[V:2] G8 |]  
[V:3] G,,8 |]  
